X: 1
T: Stouts Trip tae Skea
O: Trad. Shetland
R: reel
Z: 2014 John Chambers <jc:trillian.mit.edu>
S: Page from Concord Slow Scottish Session collection, from Boston Harbor Scottish Fiddle School, Aug 2011
M: C|
L: 1/8
K: D
"A"[|\
"D"DBAF EDEF | "Em7"A,2B,D E3E | "Bm7"DBAF EDEF | "G/A"A,2B,C D3D |
"D"DBAF EDEF | "Em7"A,2B,D E3E | "Bm7"DBAF EDEF | "G/A"A,2B,C "D"D3A |]
"B"[|\
"D"d2d2 BABd | "Em7"A2Bd e3f | "Bm7"defe dcBA | "Em7"BdAF D3A |
"Bm7"d2d2 BABd | "Em7"A2Bd e3f | "D/F#"abaf "G"edBA | "G/A"BdAF "D"D4 |]
